web-magafilio/image/footer/icon-insta.svg

<svg width="29" height="29" viewBox="0 0 29 29" fill="none" xmlns="http://www.w3.org/2000/svg">
<path d="M28.8319 22.4283C28.8319 25.9611 25.9718 28.8213 22.4389 28.8213H7.22488C3.69207 28.8213 0.831909 25.9611 0.831909 22.4283V7.21973C0.831909 3.68691 3.69753 0.821289 7.23035 0.821289H22.3405C25.928 0.821289 28.8319 3.7252 28.8319 7.3127V22.4283Z" fill="url(#paint0_radial)"/>
<path d="M18.7257 4.68213H10.9382C7.48738 4.68213 4.68738 7.48213 4.68738 10.9329V18.7149C4.68738 22.1657 7.48191 24.9603 10.9382 24.9603H18.7202C22.171 24.9603 24.9655 22.1657 24.9655 18.7149V10.9329C24.971 7.47666 22.1764 4.68213 18.7257 4.68213ZM23.0241 17.9657C23.0241 20.7548 20.7655 23.0134 17.9764 23.0134H11.6874C8.89832 23.0134 6.63972 20.7548 6.63972 17.9657V11.6767C6.63972 8.8876 8.89832 6.629 11.6874 6.629H17.9764C20.7655 6.629 23.0241 8.89307 23.0241 11.6767V17.9657Z" fill="white"/>
<path d="M15.1054 9.5166C12.1522 9.5166 9.76239 11.9064 9.76239 14.8596C9.76239 17.8072 12.1522 20.2025 15.1054 20.2025C18.053 20.2025 20.4483 17.8127 20.4483 14.8596C20.4429 11.9064 18.053 9.5166 15.1054 9.5166ZM15.1054 18.0697C13.328 18.0697 11.8897 16.6314 11.8897 14.8541C11.8897 13.0768 13.328 11.6385 15.1054 11.6385C16.8772 11.6385 18.321 13.0768 18.321 14.8541C18.3155 16.6314 16.8772 18.0697 15.1054 18.0697Z" fill="white"/>
<path d="M21.4327 9.43447C21.4327 10.1837 20.8257 10.7907 20.0765 10.7907C19.3272 10.7907 18.7202 10.1837 18.7202 9.43447C18.7202 8.68525 19.3272 8.07275 20.0765 8.07275C20.8257 8.07275 21.4327 8.67978 21.4327 9.43447Z" fill="white"/>
<defs>
<radialGradient id="paint0_radial" cx="0" cy="0" r="1" gradientUnits="userSpaceOnUse" gradientTransform="translate(9.03331 30.9891) scale(37.1042 37.1031)">
<stop offset="0.0969388" stop-color="#FFD87A"/>
<stop offset="0.1426" stop-color="#FCCE78"/>
<stop offset="0.2263" stop-color="#F5B471"/>
<stop offset="0.3378" stop-color="#EB8D65"/>
<stop offset="0.449" stop-color="#E36058"/>
<stop offset="0.6786" stop-color="#CD3694"/>
<stop offset="1" stop-color="#6668B0"/>
</radialGradient>
</defs>
</svg>

<svg width="29" height="29" fill="none" xmlns="http://www.w3.org/2000/svg"><path d="M28.832 22.428a6.39 6.39 0 01-6.393 6.393H7.225a6.39 6.39 0 01-6.393-6.393V7.22A6.4 6.4 0 017.23.82h15.11a6.488 6.488 0 016.492 6.492v15.115z" fill="url(#paint0_radial)"/><path d="M18.726 4.682h-7.788c-3.45 0-6.25 2.8-6.25 6.25v7.783a6.245 6.245 0 006.25 6.245h7.782a6.243 6.243 0 006.245-6.245v-7.782a6.236 6.236 0 00-6.24-6.25zm4.298 13.284a5.046 5.046 0 01-5.048 5.047h-6.289a5.046 5.046 0 01-5.047-5.047v-6.29a5.046 5.046 0 015.047-5.047h6.29a5.05 5.05 0 015.047 5.048v6.289z" fill="#fff"/><path d="M15.105 9.517a5.344 5.344 0 105.343 5.343 5.347 5.347 0 00-5.343-5.343zm0 8.553a3.214 3.214 0 01-3.215-3.216 3.214 3.214 0 013.215-3.215 3.217 3.217 0 013.216 3.215 3.22 3.22 0 01-3.216 3.216zM21.433 9.434a1.356 1.356 0 11-2.713 0 1.357 1.357 0 112.713 0z" fill="#fff"/><defs><radialGradient id="paint0_radial" cx="0" cy="0" r="1" gradientUnits="userSpaceOnUse" gradientTransform="matrix(37.1042 0 0 37.1031 9.033 30.99)"><stop offset=".097" stop-color="#FFD87A"/><stop offset=".143" stop-color="#FCCE78"/><stop offset=".226" stop-color="#F5B471"/><stop offset=".338" stop-color="#EB8D65"/><stop offset=".449" stop-color="#E36058"/><stop offset=".679" stop-color="#CD3694"/><stop offset="1" stop-color="#6668B0"/></radialGradient></defs></svg>
